X:1
T:The Angels’ Chorus
T:The Angels’ Chorus
T:Joseph Lincoln Hall
T:Lizzie D. F. DeArmond, 1900
T:Public Domain Courtesy of the Cyber Hymnal™
T:Public Domain Courtesy of the Cyber Hymnal™
C:Joseph Lincoln Hall
Z:Public Domain
Z:Courtesy of the Cyber Hymnal™
%%score 1 ( 2 3 )
L:1/8
Q:1/4=100
M:4/4
K:Bb
V:1 treble 
V:2 bass 
V:3 bass 
V:1
 B3 A B2 F2 | G3 A B2 G2 | F2 B2 d2 B2 | d3 c c4 | B3 c d2 B2 | c3 d e2 c2 | B2 F2 dcBA | %7
w: 1.~Hal- le- lu- jah!|hal- le- lu- jah!|An- gels sang that|bless- èd day,|When the Lord of|life and glo- ry,|In a low- ly man- ger|
w: 2.~Still on earth, our|hap- py voic- es,|May re- peat the|thrill- ing strain,|That the an- gels|sang in cho- rus,|O- ver far Ju- de- a’s|
w: 3.~Hal- le- lu- jah!|hal- le- lu- jah!|Rich- est gifts to|Thee we bring,|All we have and|all we hope for,|As a Christ- mas of- fer-|
 [DB]6 z2 | ([FAc][FAc]) ([FAc][FAc]) ([FAc][FAc]) ([FAc][FAc]) | %9
w: lay;|Ring- * ing * thro’ * the *|
w: plain;|Faint- * ing * hearts * look *|
w: ing;|Glo- * ry * in * the *|
 ([FBd][FBd]) ([FBd][FBd]) ([FBd][FBd]) ([FBd][FBd]) | %10
w: aisles * of * Hea- * ven, *|
w: up * with * glad- * ness, *|
w: high- * est * glo- * ry, *|
 ([GBe][GBe]) ([GBe][GBe]) ([GBe][GBe]) ([GBe][GBe]) | ([FBd][FBd][FBd][FBd][FBd][FBd][FBd][FBd]) | %12
w: Came * that * chant * sub- *|lime— * * * * * * *|
w: Peace * on * earth * to- *|day, * * * * * * *|
w: Peace, * good * will * to *|men. * * * * * * *|
 [FB]3 [FB] [FAc]2 [FAc]2 | [FBd]3 [FBd] [GBe]2 [_G_d=e]2 | [FBdf]2 [FBd]>[FB] [FBd]2 [EAc]2 | %15
w: Glo- ry in the|high- est glo- ry!|Glo- ry to God on|
w: Glo- ry in the|high- est glo- ry!|Glo- ry to God on|
w: Glo- ry in the|high- est glo- ry!|Glo- ry to God on|
 [DFB]6 z2 ||"^Refrain" [FB]3"^Boys" [Fc] [Fd]2 [FB]2 |"^Girls" [GBe]2 [GBe]>[GBe] [FBd]4 | %18
w: high.|||
w: high.|Hal- le- lu- jah!|Glo- ry to God,|
w: high.|||
"^Boys" [Fc]3 [Fd] [Fe]2 [Fc]2 |"^Girls" [Fce]2 [Fce]>[Fce] [FBd]4 | %20
w: ||
w: Hal- le- lu- jah!|Glo- ry to God,|
w: ||
"^All" [FBdf]3 [FBdf] [FAce]2 [FBd]2 | [Gc]3 [G=Bd] [Gce]2 [EGc]2 | %22
w: ||
w: Hal- le- lu- jah!|Hal- le- lu- jah!|
w: ||
 [FB]2 [FBdf]>[FAe] [FBd]2 [EFc]2 | [DFB]6 z2 |] %24
w: ||
w: Glo- ry to God on|high.|
w: ||
V:2
 B,,2 [F,B,D]2 [F,B,D]2 [F,B,D]2 | E,2 [G,B,E]2 [G,B,E]2 [G,B,E]2 | %2
 B,,2 [F,B,D]2 [F,B,D]2 [F,B,D]2 | [G,B,C=E]2 [G,B,CE]2 [F,A,C_E]2 [F,A,CE]2 | %4
 B,,2 [F,B,D]2 [F,B,D]2 [F,B,D]2 | [E,G,C]2 [E,G,C]2 [E,G,C]2 [E,G,C]2 | [F,B,D]2 [F,B,D]2 DEDC | %7
 [B,,B,]6 z2 | E3 D C2 F,2 | D3 C B,2 F,2 | G,2 B,2 E2 G,2 | F,6 z2 | [B,D]3 [B,D] [A,C]2 [A,C]2 | %13
 [_A,B,D]3 [A,B,D] [G,B,E]2 [_G,B,_D=E]2 | [F,B,D]2 [F,D]>[F,D] [F,B,]2 [F,A,]2 | [B,,B,]6 z2 || %16
 [B,D]3 [B,D] [B,D]2 [B,D]2 | B,2 [G,B,]>[A,B,] B,4 | [F,A,]3 [F,A,] [F,C]2 [F,A,]2 | %19
 A,2 A,>[F,A,] B,4 | [B,D]3 [B,D] [A,C]2 [B,D]2 | [E,B,]3 [D,=B,] [C,C]2 [E,C]2 | %22
 [F,D]2 [F,D]>[F,C] [F,B,]2 [F,A,]2 | [B,,B,]6 z2 |] %24
V:3
 x8 | x8 | x8 | x8 | x8 | x8 | x4 F,4 | x8 | x8 | x8 | x8 | x8 | x8 | x8 | x8 | x8 || x8 | %17
 (E,F,) x B,4 x | x8 | (F,G,)A,3/2 B,4 x/ | x8 | x8 | x8 | x8 |] %24

